assets/images/svg/arrow-crash.svg

<svg width="105" height="67" viewBox="0 0 105 67" fill="none" xmlns="http://www.w3.org/2000/svg">
<path d="M104.492 34.7047L77.0841 64.8426C76.6248 65.7281 75.4198 66.4459 74.3931 66.4459H49.0406C48.0137 66.4459 47.5534 65.7281 48.0126 64.8426L75.4207 34.7047C75.8801 33.8191 75.8801 32.3829 75.4207 31.4972L48.0126 1.95691C47.5532 1.07125 48.0137 0.353455 49.0406 0.353455H74.3929C76.3184 0.353455 77.5027 2.37139 78.6084 3.60168C80.0715 5.23015 100.388 27.0732 104.493 31.4972C104.951 32.3835 104.951 33.8189 104.492 34.7047Z" fill="#FF0000"/>
<path d="M104.492 34.7047L77.0841 64.8426C76.6248 65.7281 75.4198 66.4459 74.3931 66.4459H49.0406C48.0137 66.4459 47.5534 65.7281 48.0126 64.8426L75.4207 34.7047C75.8801 33.8191 75.8801 32.3829 75.4207 31.4972L48.0126 1.95691C47.5532 1.07125 48.0137 0.353455 49.0406 0.353455H74.3929C76.3184 0.353455 77.5027 2.37139 78.6084 3.60168C80.0715 5.23015 100.388 27.0732 104.493 31.4972C104.951 32.3835 104.951 33.8189 104.492 34.7047Z" fill="url(#paint0_linear)"/>
<path d="M1.02715 1.95746C0.567825 1.0718 1.02831 0.354004 2.05517 0.354004C2.05517 0.354004 27.4075 0.354004 27.4081 0.354004C29.7552 0.35456 32.8391 4.91071 34.3706 6.56179C37.0653 9.46576 57.3598 31.2143 57.5068 31.4984C57.9662 32.384 57.9662 33.8202 57.5068 34.7058L30.0987 64.8437C29.6392 65.7294 28.4343 66.4472 27.4075 66.4472H2.05517C1.02831 66.4472 0.568016 65.7294 1.02715 64.8437L28.4355 34.7058C28.8948 33.8203 28.8948 32.384 28.4355 31.4984L1.02715 1.95746Z" fill="#FF0000"/>
<path d="M1.02715 1.95746C0.567825 1.0718 1.02831 0.354004 2.05517 0.354004C2.05517 0.354004 27.4075 0.354004 27.4081 0.354004C29.7552 0.35456 32.8391 4.91071 34.3706 6.56179C37.0653 9.46576 57.3598 31.2143 57.5068 31.4984C57.9662 32.384 57.9662 33.8202 57.5068 34.7058L30.0987 64.8437C29.6392 65.7294 28.4343 66.4472 27.4075 66.4472H2.05517C1.02831 66.4472 0.568016 65.7294 1.02715 64.8437L28.4355 34.7058C28.8948 33.8203 28.8948 32.384 28.4355 31.4984L1.02715 1.95746Z" fill="url(#paint1_linear)"/>
<defs>
<linearGradient id="paint0_linear" x1="76.3356" y1="0.353455" x2="76.3356" y2="66.4459" gradientUnits="userSpaceOnUse">
<stop stop-color="#8F00FF"/>
<stop offset="1" stop-color="#BB41AF"/>
</linearGradient>
<linearGradient id="paint1_linear" x1="29.3503" y1="0.354004" x2="29.3503" y2="66.4472" gradientUnits="userSpaceOnUse">
<stop stop-color="#8F00FF"/>
<stop offset="1" stop-color="#BB41AF"/>
</linearGradient>
</defs>
</svg>

<svg width="105" height="67" fill="none" xmlns="http://www.w3.org/2000/svg"><path d="M104.492 34.705L77.084 64.843c-.46.885-1.664 1.603-2.69 1.603H49.04c-1.027 0-1.488-.718-1.028-1.603L75.42 34.705c.46-.886.46-2.322 0-3.208L48.013 1.957c-.46-.886 0-1.604 1.028-1.604h25.352c1.925 0 3.11 2.018 4.215 3.249 1.463 1.628 21.78 23.471 25.885 27.895.458.886.458 2.322-.001 3.208z" fill="red"/><path d="M104.492 34.705L77.084 64.843c-.46.885-1.664 1.603-2.69 1.603H49.04c-1.027 0-1.488-.718-1.028-1.603L75.42 34.705c.46-.886.46-2.322 0-3.208L48.013 1.957c-.46-.886 0-1.604 1.028-1.604h25.352c1.925 0 3.11 2.018 4.215 3.249 1.463 1.628 21.78 23.471 25.885 27.895.458.886.458 2.322-.001 3.208z" fill="url(#paint0_linear)"/><path d="M1.027 1.957C.567 1.072 1.028.354 2.055.354h25.353c2.347 0 5.431 4.557 6.963 6.208 2.694 2.904 22.989 24.652 23.136 24.936.46.886.46 2.322 0 3.208L30.099 64.844c-.46.885-1.665 1.603-2.692 1.603H2.055c-1.027 0-1.487-.718-1.028-1.603l27.409-30.138c.459-.886.459-2.322 0-3.208L1.027 1.958z" fill="red"/><path d="M1.027 1.957C.567 1.072 1.028.354 2.055.354h25.353c2.347 0 5.431 4.557 6.963 6.208 2.694 2.904 22.989 24.652 23.136 24.936.46.886.46 2.322 0 3.208L30.099 64.844c-.46.885-1.665 1.603-2.692 1.603H2.055c-1.027 0-1.487-.718-1.028-1.603l27.409-30.138c.459-.886.459-2.322 0-3.208L1.027 1.958z" fill="url(#paint1_linear)"/><defs><linearGradient id="paint0_linear" x1="76.336" y1=".353" x2="76.336" y2="66.446" gradientUnits="userSpaceOnUse"><stop stop-color="#8F00FF"/><stop offset="1" stop-color="#BB41AF"/></linearGradient><linearGradient id="paint1_linear" x1="29.35" y1=".354" x2="29.35" y2="66.447" gradientUnits="userSpaceOnUse"><stop stop-color="#8F00FF"/><stop offset="1" stop-color="#BB41AF"/></linearGradient></defs></svg>
